packages/icons/src/components/CategoryIcon/assets/interactive-demos.svg

<svg width="20" height="20" viewBox="0 0 20 20" fill="none" xmlns="http://www.w3.org/2000/svg">
<path d="M9.70141 6.5C9.70141 6.22386 9.47755 6 9.20141 6C8.92527 6.00001 8.70141 6.22387 8.70141 6.5V14.1855C8.70141 14.5428 8.51079 14.8731 8.20141 15.0518C7.89206 15.2303 7.51078 15.2303 7.20141 15.0518L6.00024 14.3584C5.76093 14.2202 5.4556 14.3021 5.31762 14.541C5.17961 14.7801 5.26136 15.0855 5.50024 15.2236L8.46215 16.9336C8.49333 16.9516 8.52649 16.966 8.56176 16.9766L8.67309 16.9971C8.68646 16.9981 8.69607 16.9997 8.70239 17H12.7014C13.806 17 14.7014 16.1046 14.7014 15V11H10.7014C10.1491 11 9.70141 10.5523 9.70141 10V6.5ZM11.7014 9H14.7014C15.806 9 16.7014 9.89543 16.7014 11V15C16.7014 17.2091 14.9106 19 12.7014 19H8.7063C8.63396 18.9999 8.56959 18.9955 8.52563 18.9922C8.48884 18.9894 8.45239 18.9843 8.41626 18.9775C8.09471 18.9396 7.76859 18.8429 7.46215 18.666L4.50024 16.9561C3.30481 16.2656 2.89505 14.7366 3.5852 13.541C4.21946 12.4425 5.56048 12.0099 6.70141 12.4814V6.5C6.70141 5.11928 7.82072 4.00001 9.20141 4C10.5821 4 11.7014 5.11929 11.7014 6.5V9Z" fill="#521094" className="fill"/>
<path d="M9.25024 1C12.2878 1 14.7502 3.46243 14.7502 6.5C14.7502 7.0201 14.6771 7.52309 14.5422 8H12.7502V6.5C12.7502 4.567 11.1832 3 9.25024 3H9.20142C7.26845 3.00002 5.70142 4.56699 5.70142 6.5V10.7002C4.50856 9.69131 3.75024 8.18464 3.75024 6.5C3.75024 3.46243 6.21268 1 9.25024 1Z" fill="#A060F6" className="fillStrong" />
</svg>

<svg xmlns="http://www.w3.org/2000/svg" width="20" height="20" fill="none" viewBox="0 0 20 20">
    <path fill="#521094" d="M9.701 6.5a.5.5 0 0 0-1 0v7.685a1 1 0 0 1-1.5.867l-1.2-.694a.5.5 0 1 0-.5.866l2.961 1.71a.5.5 0 0 0 .1.043l.111.02.03.003H12.7a2 2 0 0 0 2-2v-4h-4a1 1 0 0 1-1-1zm2 2.5h3a2 2 0 0 1 2 2v4a4 4 0 0 1-4 4H8.706c-.072 0-.136-.005-.18-.008a1 1 0 0 1-.11-.015 2.5 2.5 0 0 1-.954-.311L4.5 16.956a2.498 2.498 0 0 1 2.201-4.475V6.5a2.5 2.5 0 0 1 5 0z" className="fill"/>
    <path fill="#a060f6" d="M9.25 1a5.5 5.5 0 0 1 5.292 7H12.75V6.5A3.5 3.5 0 0 0 9.25 3h-.049a3.5 3.5 0 0 0-3.5 3.5v4.2A5.5 5.5 0 0 1 9.25 1" className="fillStrong"/>
</svg>
